X:24
T:New York
M:3/2
L:1/8
Q:1/2=100
S:D.Wright, Extraordinary Collection, London 1713
Z:Pete Stewart, 2004 <www.hornpipemusic.co.uk>
K:GMin
"6/4 in book"F2B2E2B2D4 | C2c4G2 ABcA | FBAB DBAB D4 | B,2B4G2 ABcA :|
 |: d2B2B2B,2 DEFD | C2 ABcBAG ABcA | d2B2F2B2D2F2 | B,2B4 G2 ABcA :|
 |: dcBA BAGF GFED | C2c4G2 ABcA | dcBA BAGF GFED | B,2B4G2ABcA :|
 |: B2b2a2gf gfed | ABcd c2G2ABcA | B2b2a2gf gfga | b2B4G2ABcA :|
 |: B2d2F2B2D2F2 | C2c4G2 ABcA | Bdcd FBAB DFEF | B,2B4G2 ABcA :|

